#include "stdosl.h"

shader MyBiomeShading (
        string Path = "",
        output string PathOut = ""
    ) 
{
    
    // This small script acts as a String input node
    PathOut = Path;
    
}

